(** This GCode was generated by ReplicatorG 0040 **)
(*  using Skeinforge (50)  *)
(*  for a Dual headed The Replicator  *)
(*  on 2015/12/21 13:47:38 (-0500) *)
(**** start.gcode for The Replicator, dual head ****)
M103 (disable RPM)
M73 P1 (display progress)
M73 P0 (enable build progress)
M73 P2 (display progress)
G21 (set units to mm)
M73 P3 (display progress)
G90 (set positioning to absolute)
M73 P4 (display progress)
M109 S70 T0 (set HBP temperature)
M73 P5 (display progress)
M104 S210 T0 (set extruder temperature) (temp updated by printOMatic)
(**** begin homing ****)
M73 P6 (display progress)
G162 X Y F2500 (home XY axes maximum)
M73 P7 (display progress)
G161 Z F1100 (home Z axis minimum)
M73 P8 (display progress)
G92 Z-5 (set Z to -5)
M73 P9 (display progress)
G1 Z0.0 (move Z to "0")
M73 P10 (display progress)
G161 Z F100 (home Z axis minimum)
M73 P11 (display progress)
M132 X Y Z A B (Recall stored home offsets for XYZAB axis)
(**** end homing ****)
M73 P12 (display progress)
G1 X-110.5 Y-74 Z150 F3300.0 (move to waiting position)
M73 P13 (display progress)
G130 X20 Y20 Z20 A20 B20 (Lower stepper Vrefs while heating)
M73 P14 (display progress)
M6 T0 (wait for toolhead, and HBP to reach temperature)
M73 P15 (display progress)
G130 X127 Y127 Z40 A127 B127 (Set Stepper motor Vref to defaults)
M73 P16 (display progress)
M108 R3.0 T0
M73 P17 (display progress)
G0 X-110.5 Y-74 (Position Nozzle)
G0 Z0.6      (Position Height)
M73 P18 (display progress)
M108 R5.0    (Set Extruder Speed)
M73 P19 (display progress)
M101         (Start Extruder)
M73 P20 (display progress)
G4 P2000     (Create Anchor)
M73 P21 (display progress)
(**** end of start.gcode ****)
M73 P22 (display progress)
(** This GCode was generated by ReplicatorG 0040 **)
M73 P23 (display progress)
(*  using Skeinforge (50)  *)
(*  for a Dual headed The Replicator  *)
M73 P24 (display progress)
(*  on 2015/12/21 13:31:03 (-0500) *)
M73 P25 (display progress)
(**** start.gcode for The Replicator, dual head ****)
M73 P26 (display progress)
M73 P2 (display progress)
M73 P27 (display progress)
M103 (disable RPM)
M73 P28 (display progress)
M73 P5 (display progress)
M73 P29 (display progress)
M73 P0 (enable build progress)
M73 P7 (display progress)
M73 P30 (display progress)
G21 (set units to mm)
M73 P31 (display progress)
M73 P10 (display progress)
M73 P32 (display progress)
G90 (set positioning to absolute)
M73 P33 (display progress)
M73 P13 (display progress)
M73 P34 (display progress)
M109 S70 T0 (set HBP temperature)
M73 P35 (display progress)
M73 P15 (display progress)
M104 S210 T0 (set extruder temperature) (temp updated by printOMatic)
M73 P36 (display progress)
M73 P18 (display progress)
M73 P37 (display progress)
(**** begin homing ****)
M73 P38 (display progress)
M73 P21 (display progress)
M73 P39 (display progress)
G162 X Y F2500 (home XY axes maximum)
M73 P40 (display progress)
M73 P23 (display progress)
M73 P41 (display progress)
G161 Z F1100 (home Z axis minimum)
M73 P26 (display progress)
M73 P42 (display progress)
G92 Z-5 (set Z to -5)
M73 P43 (display progress)
M73 P28 (display progress)
M73 P44 (display progress)
G1 Z0.0 (move Z to "0")
M73 P45 (display progress)
M73 P31 (display progress)
M73 P46 (display progress)
G161 Z F100 (home Z axis minimum)
M73 P47 (display progress)
M73 P34 (display progress)
M132 X Y Z A B (Recall stored home offsets for XYZAB axis)
M73 P48 (display progress)
M73 P36 (display progress)
M73 P49 (display progress)
(**** end homing ****)
M73 P50 (display progress)
M73 P39 (display progress)
M73 P51 (display progress)
G1 X-110.5 Y-74 Z150 F3300.0 (move to waiting position)
M73 P52 (display progress)
M73 P42 (display progress)
G130 X20 Y20 Z20 A20 B20 (Lower stepper Vrefs while heating)
M73 P53 (display progress)
M73 P44 (display progress)
M73 P54 (display progress)
M6 T0 (wait for toolhead, and HBP to reach temperature)
M73 P55 (display progress)
M73 P47 (display progress)
M73 P56 (display progress)
G130 X127 Y127 Z40 A127 B127 (Set Stepper motor Vref to defaults)
M73 P57 (display progress)
M73 P50 (display progress)
M73 P58 (display progress)
M108 R3.0 T0
M73 P52 (display progress)
M73 P59 (display progress)
G0 X-110.5 Y-74 (Position Nozzle)
M73 P60 (display progress)
M73 P55 (display progress)
M73 P61 (display progress)
G0 Z0.6      (Position Height)
M73 P62 (display progress)
M73 P57 (display progress)
M73 P63 (display progress)
M108 R5.0    (Set Extruder Speed)
M73 P64 (display progress)
M73 P60 (display progress)
M101         (Start Extruder)
M73 P65 (display progress)
M73 P63 (display progress)
M73 P66 (display progress)
G4 P2000     (Create Anchor)
M73 P67 (display progress)
M73 P65 (display progress)
M73 P68 (display progress)
(**** end of start.gcode ****)
M73 P69 (display progress)
M73 P68 (display progress)
M73 P70 (display progress)
(******* End.gcode*******)
M73 P71 (display progress)
M73 P71 (display progress)
M73 P100 ( End  build progress )
M73 P72 (display progress)
M73 P73 (display progress)
M73 P73 (display progress)
G0 Z150 ( Send Z axis to bottom of machine )
M73 P74 (display progress)
M73 P76 (display progress)
M73 P75 (display progress)
M18 ( Disable steppers )
M73 P76 (display progress)
M73 P78 (display progress)
M109 S0 T0 ( Cool down the build platform )
M73 P77 (display progress)
M73 P81 (display progress)
M73 P78 (display progress)
M104 S0 T0 ( Cool down the Right Extruder )
M73 P79 (display progress)
M73 P84 (display progress)
M73 P80 (display progress)
M104 S0 T1 ( Cool down the Left Extruder )
M73 P81 (display progress)
M73 P86 (display progress)
M73 P82 (display progress)
G162 X Y F2500 ( Home XY endstops )
M73 P89 (display progress)
M73 P83 (display progress)
M18 ( Disable stepper motors )
M73 P84 (display progress)
M73 P92 (display progress)
M73 P85 (display progress)
M70 P5 ( We <3 Making Things!)
M73 P86 (display progress)
M73 P94 (display progress)
M73 P87 (display progress)
M72 P1  ( Play Ta-Da song )
M73 P88 (display progress)
M73 P97 (display progress)
(*********end End.gcode*******)
M73 P89 (display progress)
(******* End.gcode*******)
M73 P90 (display progress)
M73 P100 ( End  build progress )
M73 P91 (display progress)
G0 Z150 ( Send Z axis to bottom of machine )
M73 P92 (display progress)
M18 ( Disable steppers )
M73 P93 (display progress)
M109 S0 T0 ( Cool down the build platform )
M73 P94 (display progress)
M104 S0 T0 ( Cool down the Right Extruder )
M104 S0 T1 ( Cool down the Left Extruder )
M73 P95 (display progress)
G162 X Y F2500 ( Home XY endstops )
M73 P96 (display progress)
M18 ( Disable stepper motors )
M73 P97 (display progress)
M70 P5 ( We <3 Making Things!)
M73 P98 (display progress)
M72 P1  ( Play Ta-Da song )
M73 P99 (display progress)
(*********end End.gcode*******)
